X:1
T:Title
%%score { ( 1 3 ) | ( 2 4 ) }
L:1/8
M:4/4
K:G
V:1 treble nm="Grand Piano"
V:3 treble 
V:2 bass 
V:4 bass 
V:1
 z4 z2[Q:1/4=110] D2 | [DB]2 [DB]2 [EB]2 [FB]2 | B4 z4 | G2 D2 E2 G2 | F6 D2 | %5
 c2 [Ec]2 [Fc]2 [=Fc]2 | c4 z4 | [Fd]2 [FA]2 [FB]2 [Fc]2 | B6 D2 | [DB]2 [DB]2 [EB]2 [FB]2 | %10
 B4 z4 | d2 B2 A2 G2 | [Ec]6 [EG]2 | [EA]2 [EG]2 [DF]2 [CE]2 | [B,D]4 [DB]2 [Ec]2 | B2 G2 G2 A2 | %16
[M:3/4] [B,G]6 |[M:1/4] D2 |[M:4/4] G6 z2 | E6 z2 | F2 F>F E>E D>D | [DB]6 D2 | G6 z2 | E6 z2 | %24
 [^CE]>[CE] [CE]>[CE] [CF]2 [CG]2 | A2 F2 E2 D2 | G6 z2 | E6 z2 | F>F F>F E2 D2 | [DB]6 [DB][Ec] | %30
 [=Fd]4 [FB]2 [FA][FB] | [Ec]6 [EA]>[Ec] | [DB]4 [CA]4 |[M:3/4] [B,G]6 |] %34
V:2
 z4 z2 [G,B,]2 | [G,,G,]2 [G,,G,]2 [G,,G,]2 [G,,G,]2 | [G,,G,]4 [G,,G,]2 [G,,G,]2 | %3
 [G,B,]2 [G,B,]2 [G,B,]2 [G,B,]2 | [D,A,C]6 [D,A,C]2 | [D,F,D]2 [D,G,]2 [D,A,]2 [D,^G,]2 | %6
 A,2 z2 z4 | [D,A,]2 [D,D]2 [D,D]2 [D,D]2 | [G,DG]6 [G,B,]2 | [G,,G,]2 [G,,G,]2 [G,,G,]2 [G,,G,]2 | %10
 [G,,G,]4 [A,,G,]2[K:treble] [G,D]2 | [G,B,=F]2 [G,DF]2 [G,CF]2 [G,B,F]2 | [C,G,]6 [C,C]2 | %13
 [C,C]2 [C,C]2 [C,G,]2 [C,G,]2 | [G,,G,]4 [G,,G,]2 [C,G,]2 | [D,G,D]2 [D,B,D]2 [D,B,D]2 [D,F,C]2 | %16
[M:3/4] [G,,G,]6 |[M:1/4] z2 |[M:4/4] z2 [G,B,]2 [G,B,]2 z2 | z2 [C,G,]2 [C,G,]2 [C,C]2 | %20
 [D,CD]2 [D,CD]>[D,CD] [D,A,C]>[D,A,C] [D,F,C]>[D,F,C] | [G,,G,]6 z2 | z2 [G,B,]2 [G,B,]2 z2 | %23
 z2 [C,G,]2 [C,G,]2 [C,G,C]2 | [A,,A,]>[A,,A,] [A,,A,]>[A,,A,] [A,,A,]2 [A,,A,]2 | %25
 [D,C]2- [D,-A,C-]2 [D,G,C]2 z2 | z2 [G,B,]2 [G,B,]2 z2 | z2 [C,G,]2 [C,G,]2 [C,C]2 | %28
 [D,CD]>[D,CD] [D,CD]>[D,CD] [D,A,C]2 [D,F,C]2 | [G,,G,]6 [G,,G,][G,,G,] | %30
 [G,,G,]4 [G,,G,]2 [G,,G,][G,,G,] | [C,G,]6 [C,C]>[C,A,] | [D,G,]4 [D,F,]4 |[M:3/4] [G,,G,]6 |] %34
V:3
 x8 | x8 | G2 F2 [EB]2 [DB]2 | x8 | x8 | x8 | F2 [G,E]2 [Dc]2 [FA]2 | x8 | x8 | x8 | %10
 G2 F2 [EB]2 B2 | x8 | x8 | x8 | x8 | x8 |[M:3/4] x6 |[M:1/4] x2 |[M:4/4] z2 D2 D2 B2 | %19
 z2 C2 C2 [EG]2 | x8 | x8 | z2 D2 D2 B2 | z2 C2 C2 E2 | x8 | x8 | z2 D2 D2 B2 | z2 C2 C2 [EG]2 | %28
 x8 | x8 | x8 | x8 | x8 |[M:3/4] x6 |] %34
V:4
 x8 | x8 | x8 | x8 | x8 | x8 | D,4 [D,F,]2 [D,D]2 | x8 | x8 | x8 | x6[K:treble] x2 | x8 | x8 | x8 | %14
 x8 | x8 |[M:3/4] x6 |[M:1/4] x2 |[M:4/4] x8 | x8 | x8 | x8 | x8 | x8 | x8 | F,2 z2 z4 | x8 | x8 | %28
 x8 | x8 | x8 | x8 | x8 |[M:3/4] x6 |] %34

